X: 30264
T: Old Lancashire Hornpipe, The
R: three-two
M: 3/2
K: Dmajor
K:D
B2 A2 G2 F3 E D2|f2 e2 d2 e2 E4|B2 A2 G2 F2>E2 D2|f2 e2 f2 d2 D4:|
|:B2 A2 G2 F2 G2<A2|F2 E2 D2 C2 E4|B2 A2 G2 F2 G2<A2 F2 E2 D2 A,2 D4:|
|:f2g2 a2 f3 e d2|f2 e2 d2 c2 e4|f2 efga f3e d2|f2 e2 dc d2 D4:|

